packages/dnb-eufemia/assets/icons/diamond_medium.svg

<svg width="24" height="24" viewBox="0 0 24 24" fill="none" xmlns="http://www.w3.org/2000/svg">
<path d="M18.773 2.16894C18.9844 2.28003 19.1683 2.44133 19.3102 2.64007L22.6957 7.38833C22.9013 7.67656 23.0083 8.02925 22.9995 8.38934M18.773 2.16894C18.5615 2.05784 18.3284 2 18.092 2H12.001M18.773 2.16894L16.6485 8.38934M5.22907 2.16894C5.44051 2.05784 5.67366 2 5.91006 2H12.001M5.22907 2.16894C5.01763 2.28003 4.8337 2.44133 4.69187 2.64007L1.30428 7.38833C1.09869 7.67656 0.991664 8.02925 1.00051 8.38934M5.22907 2.16894L7.3529 8.38934M1.00051 8.38934C1.00935 8.74942 1.13355 9.09584 1.35301 9.37255L10.8326 21.4272C11.1184 21.7859 11.5548 22 12 22M1.00051 8.38934H7.3529M12 22C12.4452 22 12.8816 21.7859 13.1674 21.4272L22.647 9.37255C22.8665 9.09584 22.9906 8.74942 22.9995 8.38934M12 22L7.3529 8.38934M12 22L16.6485 8.38934M22.9995 8.38934H16.6485M7.3529 8.38934L12.001 2M7.3529 8.38934H16.6485M12.001 2L16.6485 8.38934" stroke="black" stroke-width="1.5" stroke-linecap="round" stroke-linejoin="round"/>
</svg>

<svg width="24" height="24" viewBox="0 0 24 24" fill="none" xmlns="http://www.w3.org/2000/svg"><path d="M18.773 2.169c.211.111.395.272.537.471l3.386 4.748c.205.289.312.641.303 1.001m-4.226-6.22A1.463 1.463 0 0 0 18.092 2h-6.091m6.772.169-2.125 6.22M5.23 2.17c.211-.112.444-.17.68-.17h6.091m-6.772.169a1.543 1.543 0 0 0-.537.471L1.304 7.388a1.66 1.66 0 0 0-.303 1.001m4.228-6.22 2.124 6.22M1 8.39c.008.36.133.707.352.984l9.48 12.054A1.51 1.51 0 0 0 12 22M1 8.39h6.353M12 22a1.51 1.51 0 0 0 1.167-.573l9.48-12.054A1.65 1.65 0 0 0 23 8.389M12 22 7.353 8.39M12 22l4.648-13.61m6.352 0h-6.352m-9.295 0L12 2M7.353 8.39h9.295M12.001 2l4.647 6.39" stroke="#000" stroke-width="1.5" stroke-linecap="round" stroke-linejoin="round"/></svg>
